packages/icons/svgs/duotone/line-chart-duotone.svg

<svg width="24" height="24" viewBox="0 0 24 24" fill="none" xmlns="http://www.w3.org/2000/svg">
<g clip-path="url(#clip0_1457_795)">
<path fill-rule="evenodd" clip-rule="evenodd" d="M23.7071 6.29289C24.0976 6.68342 24.0976 7.31658 23.7071 7.70711L15.7071 15.7071C15.3166 16.0976 14.6834 16.0976 14.2929 15.7071L9 10.4142L1.70711 17.7071C1.31658 18.0976 0.683417 18.0976 0.292893 17.7071C-0.0976311 17.3166 -0.0976311 16.6834 0.292893 16.2929L8.29289 8.29289C8.68342 7.90237 9.31658 7.90237 9.70711 8.29289L15 13.5858L22.2929 6.29289C22.6834 5.90237 23.3166 5.90237 23.7071 6.29289Z" fill="black"/>
</g>
<defs>
<clipPath id="clip0_1457_795">
<rect width="24" height="24" fill="white"/>
</clipPath>
</defs>
</svg>

<svg width="24" height="24" viewBox="0 0 24 24" xmlns="http://www.w3.org/2000/svg"><g clip-path="url(#a)"><path fill-rule="evenodd" clip-rule="evenodd" d="M23.707 6.293a1 1 0 0 1 0 1.414l-8 8a1 1 0 0 1-1.414 0L9 10.414l-7.293 7.293a1 1 0 0 1-1.414-1.414l8-8a1 1 0 0 1 1.414 0L15 13.586l7.293-7.293a1 1 0 0 1 1.414 0Z"/></g><defs><clipPath id="a"><path fill="#fff" d="M0 0h24v24H0z"/></clipPath></defs></svg>
